X:2992
T:Polska efter Alfred Lundberg (EÖ42)
B:EÖ, nr 42
S:efter Alfred Lundberg
O:Bullaren, Bohuslän
R:Polska
Z:Nils L
M:3/4
L:1/8
K:G
[G2G,2] Bd Bd | B>d cB AG | FA ce ce | ce dc BA |
[G2G,2] Bd Bd | Bd cB AG | FG AB cd | ef/f/ [gB]2 z2 ::
{g/}g>e (ed) d>g | e>c (cB) B>G | A>B (3cAc (3BGB | (3AFA GB d>g |
g>e ed d z/g/ | e>c (cB) B>G | A>B (3cAc (3BGB | (3AFA [G,4G4] :|
(:musicend:)
(:music:)
